X: 89
M: 2/4
L: 1/16
K: G
|:\
d2c2B2A2 | B2AB G2D2 |\
d2c2B2A2 | G4 G4 ::\
d2c2B2A2 | B2AB G2D2 |\
d2c2B2A2 | G4 G4 :|


